images/light/topic.svg

<svg height="16" viewBox="0 0 16 16" width="16" xmlns="http://www.w3.org/2000/svg" xmlns:xlink="http://www.w3.org/1999/xlink"><image height="16" width="16" xlink:href="data:image/png;base64,iVBORw0KGgoAAAANSUhEUgAAABAAAAAQCAYAAAAf8/9hAAAAAXNSR0IArs4c6QAAABVJREFUOBFjYBgFoyEwGgKjIQAJAQAEEAABvmNTIgAAAABJRU5ErkJggg=="/><g fill="#646465"><path d="m1 10h4v-4h-4z"/><path d="m6 10h4v-4h-4z"/><path d="m11 10h4v-4h-4z"/></g></svg>

<?xml version="1.0" encoding="UTF-8"?>
<svg width="16px" height="16px" viewBox="0 0 16 16" xmlns="http://www.w3.org/2000/svg" xmlns:xlink="http://www.w3.org/1999/xlink" version="1.1">
 <!-- Generated by Pixelmator Pro 1.2.4 -->
 <defs>
  <image id="image" width="16px" height="16px" xlink:href="data:image/png;base64,iVBORw0KGgoAAAANSUhEUgAAABAAAAAQCAYAAAAf8/9hAAAAAXNSR0IArs4c6QAAABVJREFUOBFjYBgFoyEwGgKjIQAJAQAEEAABvmNTIgAAAABJRU5ErkJggg=="/>
 </defs>
 <use id="layer" xlink:href="#image" x="0px" y="0px" width="16px" height="16px"/>
 <path id="path" d="M1 10 L5 10 5 6 1 6 Z" fill="#646465" fill-opacity="1" stroke="none"/>
 <path id="path-1" d="M6 10 L10 10 10 6 6 6 Z" fill="#646465" fill-opacity="1" stroke="none"/>
 <path id="path-2" d="M11 10 L15 10 15 6 11 6 Z" fill="#646465" fill-opacity="1" stroke="none"/>
</svg>
